app/assets/v2/images/mission/value/falcon_2.svg

<svg id="Layer_3" data-name="Layer 2" xmlns="http://www.w3.org/2000/svg" viewBox="0 0 562.04 940.49"><defs><style>.cls-1,.cls-8{fill:#ffd107}.cls-2,.cls-7,.cls-9{fill:#00ed92}.cls-2,.cls-3{stroke:#fff}.cls-2,.cls-3,.cls-4,.cls-5,.cls-7,.cls-8{stroke-linecap:round;stroke-linejoin:round;stroke-width:2.41px}.cls-3,.cls-4{fill:none}.cls-4,.cls-5,.cls-7,.cls-8{stroke:#180041}.cls-10,.cls-5{fill:#180041}</style></defs><circle class="cls-1" cx="413.93" cy="82.54" r="24.4"/><path class="cls-2" d="M389.21 887.91c0-28.66-24.67-38-24.67-38 0-14-22.67-43.33-52-43.33s-38 10.67-38 10.67c-17-17-34.67-54-34.67-54h-22.66s-17.67 37-34.67 54c0 0-8.67-10.67-38-10.67s-52 29.33-52 43.33c0 0-24.67 9.34-24.67 38z"/><path class="cls-3" d="M144.62 835.24s1.75-5.5 10-5.5 9.25 6.25 9.25 6.25m-25.5 28.5S121 842.08 92.54 849.91m129.58-61.17s-5.5 33-33 57.25m-6.58-28.74s7.08 7 7.58 11.74m122.17 6.25s-1.75-5.5-10-5.5S293 836 293 836m25.54 28.49s17.42-22.41 45.83-14.58m-129.58-61.17s5.5 33 33 57.25m6.58-28.74s-7.08 7-7.58 11.74"/><path class="cls-2" d="M482.54 887.91c0-28.66-24.67-38-24.67-38 0-14-22.66-43.33-52-43.33s-38 10.67-38 10.67c-17-17-34.66-54-34.66-54h-22.67s-17.67 37-34.67 54c0 0-8.66-10.67-38-10.67s-52 29.33-52 43.33c0 0-24.66 9.34-24.66 38z"/><path class="cls-3" d="M238 835.24s1.75-5.5 10-5.5 9.25 6.25 9.25 6.25m-25.54 28.5s-17.42-22.41-45.84-14.58m129.59-61.17s-5.5 33-33 57.25m-6.59-28.74s7.09 7 7.59 11.74m122.16 6.25s-1.75-5.5-10-5.5-9.25 6.25-9.25 6.25m25.5 28.5s17.42-22.41 45.84-14.58m-129.59-61.17s5.5 33 33 57.25m6.59-28.74s-7.09 7-7.59 11.74"/><path class="cls-2" d="M184 864.49s-17.42-22.41-45.83-14.58m129.62-61.17s-5.5 33-33 57.25m-6.58-28.74s7.08 7 7.58 11.74"/><path class="cls-2" d="M434.87 887.91c0-28.66-24.66-38-24.66-38 0-14-22.67-43.33-52-43.33s-38 10.67-38 10.67c-17-17-34.67-54-34.67-54h-22.67s-17.66 37-34.66 54c0 0-8.67-10.67-38-10.67s-52 29.33-52 43.33c0 0-24.67 9.34-24.67 38z"/><path class="cls-3" d="M190.29 835.24s1.75-5.5 10-5.5 9.25 6.25 9.25 6.25M184 864.49s-17.42-22.41-45.83-14.58m129.62-61.17s-5.5 33-33 57.25m-6.58-28.74s7.08 7 7.58 11.74M358 835.24s-1.75-5.5-10-5.5-9.25 6.25-9.25 6.25m25.46 28.5s17.41-22.41 45.83-14.58m-129.58-61.17s5.5 33 33 57.25m6.54-28.74s-7.08 7-7.58 11.74"/><path class="cls-4" d="M209.82 443.33V662.2"/><path class="cls-5" d="M228.27 732.19s1.9-1.12 2.76-8.88 6.81-60.74 6.81-60.74.17-13.18 2.76-13.18 5.17 10.51 5.25 12.49S248 744.6 248 744.6l-2.23 1.4v5.09l-1.28 1.28h-33.13l-1.28-1.28V746l-2.24-1.37s2.07-80.74 2.15-82.72 2.68-12.49 5.26-12.49 2.75 13.15 2.75 13.15 5.94 53 6.8 60.74 2.76 8.88 2.76 8.88z"/><path class="cls-3" d="M248.13 755s-2-26.4-6.85-26.4a8.72 8.72 0 0 0-7 3s-2 7.13-2.65 11.49a3.74 3.74 0 0 1-7.42 0c-.63-4.36-2.64-11.49-2.64-11.49a8.73 8.73 0 0 0-7-3c-4.82 0-7.24 25.58-7.24 25.58"/><path class="cls-4" d="M223.44 763.38l-.1-3.82a8.13 8.13 0 0 0-4.34-7.12h-.24a8.13 8.13 0 0 0-4.34 7.12l-.1 3.82zm-9.17-3.86h8.9"/><path class="cls-4" d="M232.47 763.38l-.11-3.82a8.13 8.13 0 0 0-4.33-7.12h-.25a8.13 8.13 0 0 0-4.33 7.12l-.11 3.82zm-9.18-3.86h8.91"/><path class="cls-4" d="M241.51 763.38l-.1-3.82a8.13 8.13 0 0 0-4.34-7.12h-.24a8.13 8.13 0 0 0-4.34 7.12l-.1 3.82zm-9.17-3.86h8.9m-27.88-343.13l-2.41 4.83v3.76l-2.95 2.95v14.88h11.4v-14.85l-2.62-2.78v-3.69l1.75-5.03-5.17-.07zm-2.03 7.34l5.04.34m-7.95 14.16l4.33 4.32m-4.33-9.97l9.5 9.5m-8.51-14.15l9.5 9.5m-7.3-12.95l7.17 7.18m.13 6.57l-4.33 4.32m4.33-9.97l-9.5 9.5m8.51-14.15l-9.5 9.5m7.3-12.95l-7.17 7.18m36.58 11.67v214.39"/><path class="cls-4" d="M245.13 425.32v-9.56s1-9.48-6.29-22.66-11.37-11.93-11.37-11.93-4.13-1.25-11.37 11.93-6.29 22.66-6.29 22.66v9.56"/><path class="cls-4" d="M241.59 416.39l2.42 4.83v3.76l2.95 2.95v14.88h-11.4v-14.85l2.61-2.78v-3.69l-1.74-5.03 5.16-.07zm2.04 7.34l-5.04.34m7.94 14.16l-4.33 4.32m4.33-9.97l-9.5 9.5m8.51-14.15l-9.5 9.5m7.31-12.95l-7.18 7.18m-.13 6.57l4.33 4.32m-4.33-9.97l9.5 9.5m-8.51-14.15l9.5 9.5m-7.3-12.95l7.17 7.18m56.63 11.67V662.2m3.55-245.81l-2.42 4.83v3.76l-2.95 2.95v14.88h11.4v-14.85l-2.61-2.78v-3.69l1.74-5.03-5.16-.07zm-2.04 7.34l5.04.34m-7.95 14.16l4.33 4.32m-4.33-9.97l9.5 9.5m-8.51-14.15l9.5 9.5m-7.3-12.95l7.17 7.18m.13 6.57l-4.33 4.32m4.33-9.97l-9.5 9.5m8.51-14.15l-9.5 9.5m7.31-12.95l-7.18 7.18m36.59 11.67v214.39"/><path class="cls-4" d="M338.35 425.32v-9.56s.94-9.48-6.29-22.66-11.38-11.93-11.38-11.93-4.14-1.25-11.38 11.93-6.3 22.66-6.3 22.66v9.56"/><path class="cls-4" d="M334.8 416.39l2.42 4.83v3.76l2.95 2.95v14.88h-11.4v-14.85l2.61-2.78v-3.69l-1.74-5.03 5.16-.07zm2.04 7.34l-5.04.34m7.95 14.16l-4.33 4.32m4.33-9.97l-9.5 9.5m8.5-14.15l-9.49 9.5m7.3-12.95l-7.17 7.18m-.13 6.57l4.33 4.32m-4.33-9.97l9.49 9.5m-8.5-14.15l9.5 9.5m-7.31-12.95l7.18 7.18"/><path class="cls-5" d="M321.17 732.19s1.9-1.12 2.76-8.88 6.8-60.74 6.8-60.74.18-13.18 2.76-13.18 5.17 10.51 5.26 12.49 2.15 82.72 2.15 82.72l-2.24 1.4v5.09l-1.28 1.28h-33.13l-1.25-1.31V746l-2.24-1.37s2.06-80.74 2.15-82.72 2.67-12.49 5.26-12.49 2.75 13.18 2.75 13.18 6 53 6.81 60.74 2.76 8.88 2.76 8.88z"/><path class="cls-3" d="M341 755s-2-26.4-6.85-26.4a8.75 8.75 0 0 0-7 3s-2 7.13-2.64 11.49a3.74 3.74 0 0 1-7.42 0c-.64-4.36-2.65-11.49-2.65-11.49a8.72 8.72 0 0 0-7-3c-4.83 0-7.24 25.58-7.24 25.58"/><path class="cls-4" d="M316.34 763.38l-.11-3.82a8.13 8.13 0 0 0-4.33-7.12h-.25a8.13 8.13 0 0 0-4.33 7.12l-.11 3.82zm-9.18-3.86h8.91"/><path class="cls-4" d="M325.36 763.38l-.1-3.82a8.13 8.13 0 0 0-4.34-7.12h-.24a8.13 8.13 0 0 0-4.34 7.12l-.1 3.82zm-9.17-3.86h8.9"/><path class="cls-4" d="M334.41 763.38l-.1-3.82a8.13 8.13 0 0 0-4.34-7.12h-.25a8.13 8.13 0 0 0-4.33 7.12l-.1 3.82zm-9.18-3.86h8.91"/><path d="M291.59 658.7v-378c8.33-5.57 7.89-12 7.89-12l-.12-68s.52-15.23-9.53-31.54-15.57-14.47-15.57-14.47h-.17s-5.51-1.84-15.56 14.47-9.53 31.56-9.53 31.56l-.11 68s-.45 6.43 7.88 12v378" fill="#fff" stroke="#180041" stroke-linecap="round" stroke-linejoin="round" stroke-width="2.41"/><path class="cls-4" d="M256.57 280.5h35.27m-32.1 135.89l-2.41 4.83v3.76l-2.95 2.95v14.88h11.4v-14.85l-2.62-2.78v-3.69l1.74-5.03-5.16-.07zm-2.03 7.34l5.04.34m-7.95 14.16l4.33 4.32m-4.33-9.97l9.5 9.5m-8.51-14.15l9.5 9.5m-7.3-12.95l7.17 7.18m.13 6.57l-4.33 4.32m4.33-9.97l-9.5 9.5m8.51-14.15l-9.5 9.5m7.3-12.95l-7.17 7.18m33.04-15.27l2.41 4.83v3.76l2.95 2.95v14.88h-11.4v-14.85l2.62-2.78v-3.69l-1.74-5.03 5.16-.07zm2.03 7.34l-5.04.34m7.95 14.16l-4.33 4.32m4.33-9.97l-9.5 9.5m8.51-14.15l-9.5 9.5m7.3-12.95l-7.17 7.18m-.13 6.57l4.33 4.32m-4.33-9.97l9.5 9.5m-8.51-14.15l9.5 9.5m-7.3-12.95l7.17 7.18m-19.41-151.5V343s-2.76 3.79-2.76 6.55 1 14.47 2.93 16.37 4-16.8 4-16.8-.34-4.57-4.18-6.12"/><path class="cls-5" d="M274.34 732.19s1.89-1.12 2.75-8.88l6.81-60.74s.17-13.18 2.76-13.18 5.17 10.51 5.25 12.49 2.16 82.72 2.16 82.72l-2.24 1.4v5.09l-1.28 1.28h-33.13l-1.28-1.28V746l-2.24-1.37s2.07-80.74 2.16-82.72 2.67-12.49 5.25-12.49 2.76 13.18 2.76 13.18 5.95 53 6.81 60.74 2.75 8.88 2.75 8.88z"/><path class="cls-3" d="M294.2 755s-2-26.4-6.85-26.4a8.73 8.73 0 0 0-7 3s-2 7.13-2.64 11.49a3.74 3.74 0 0 1-7.43 0c-.63-4.36-2.64-11.49-2.64-11.49a8.73 8.73 0 0 0-7-3c-4.82 0-7.24 25.58-7.24 25.58"/><path class="cls-4" d="M269.5 763.38l-.1-3.82a8.13 8.13 0 0 0-4.33-7.12h-.25a8.13 8.13 0 0 0-4.34 7.12l-.1 3.82zm-9.17-3.86h8.9"/><path class="cls-4" d="M278.53 763.38l-.1-3.82a8.13 8.13 0 0 0-4.34-7.12h-.24a8.13 8.13 0 0 0-4.34 7.12l-.1 3.82zm-9.18-3.86h8.91"/><path class="cls-4" d="M287.58 763.38l-.11-3.82a8.13 8.13 0 0 0-4.33-7.12h-.25a8.13 8.13 0 0 0-4.33 7.12l-.11 3.82zm-9.18-3.86h8.91M218.5 416.29h115.9"/><ellipse class="cls-4" cx="264.57" cy="202.15" rx="2.99" ry="2.18"/><ellipse class="cls-4" cx="264.57" cy="242.93" rx="2.99" ry="2.18"/><path class="cls-4" d="M144.03 556.32l3.2-5.85 3.19 5.85 5.84 3.19-5.84 3.2-3.19 5.84-3.2-5.84-5.84-3.2 5.84-3.19z"/><path class="cls-7" d="M83.65 371.6l3.19-5.84 3.2 5.84 5.84 3.2-5.84 3.19-3.2 5.84-3.19-5.84-5.84-3.19 5.84-3.2z"/><path class="cls-8" d="M55.32 737.6l3.19-5.84 3.2 5.84 5.84 3.2-5.84 3.19-3.2 5.85-3.19-5.85-5.85-3.19 5.85-3.2z"/><path class="cls-4" d="M414.21 215.71l3.2-5.84 3.19 5.84 5.85 3.19-5.85 3.2-3.19 5.84-3.2-5.84-5.84-3.2 5.84-3.19z"/><path class="cls-8" d="M149.37 192.33l3.2-5.85 3.19 5.85 5.85 3.19-5.85 3.2-3.19 5.84-3.2-5.84-5.84-3.2 5.84-3.19z"/><circle class="cls-1" cx="166.04" cy="531.99" r="2.92"/><circle class="cls-9" cx="343.37" cy="329.33" r="2.92"/><circle class="cls-1" cx="171.71" cy="225.24" r="2.92"/><circle class="cls-4" cx="157.04" cy="291.74" r="2.92"/><circle class="cls-4" cx="124.54" cy="387.99" r="2.92"/><path class="cls-7" d="M438.04 580.99l3.2-5.84 3.19 5.84 5.84 3.2-5.84 3.19-3.19 5.85-3.2-5.85-5.84-3.19 5.84-3.2z"/><circle class="cls-1" cx="459.43" cy="751.38" r="2.92"/><circle class="cls-2" cx="501.43" cy="450.13" r="2.92"/><circle class="cls-4" cx="467.93" cy="617.38" r="2.92"/><circle class="cls-4" cx="417.59" cy="302.28" r="2.92"/><circle class="cls-4" cx="163.04" cy="601.91" r="2.92"/><circle class="cls-1" cx="439.72" cy="248.17" r="2.92"/><circle class="cls-1" cx="430.18" cy="424.43" r="2.92"/><path class="cls-10" d="M387.35 87.82a27.11 27.11 0 1 1 31.87 21.3 27.14 27.14 0 0 1-31.87-21.3zm50.51-10a24.39 24.39 0 1 0-19.17 28.68 24.42 24.42 0 0 0 19.17-28.72z"/><path class="cls-10" d="M423 58.63a1.36 1.36 0 0 1 .14-.92L429 47a1.37 1.37 0 0 1 .81-.66 1.33 1.33 0 0 1 1 .12l7.13 3.9a1.35 1.35 0 0 1 .65.81 1.28 1.28 0 0 1-.11 1L435.91 57a1.38 1.38 0 0 1-1.85.54l-5.94-3.26-2.6 4.72a1.36 1.36 0 0 1-1.84.54 1.39 1.39 0 0 1-.68-.91zm7.72-9.13l-1.3 2.38 4.75 2.61 1.31-2.38zm-22.88 16.29a4.07 4.07 0 1 1 4.78 3.21 4.08 4.08 0 0 1-4.78-3.21zm5.32-1.06a1.36 1.36 0 1 0-1.07 1.59 1.36 1.36 0 0 0 1.07-1.59zm5.57 7.18a5.42 5.42 0 1 1 6.38 4.26 5.43 5.43 0 0 1-6.38-4.26zm8-1.58a2.71 2.71 0 1 0-2.13 3.18 2.72 2.72 0 0 0 2.11-3.18zM394 79.59a9.49 9.49 0 1 1 11.16 7.46A9.5 9.5 0 0 1 394 79.59zm16-3.17a6.77 6.77 0 1 0-5.32 8 6.79 6.79 0 0 0 5.32-8z"/><path class="cls-9" transform="rotate(-61.27 432.425 52.008)" d="M431.09 49.28h2.71v5.42h-2.71z"/></svg>

<svg id="Layer_3" data-name="Layer 2" xmlns="http://www.w3.org/2000/svg" viewBox="0 0 562.04 940.49"><defs><style>.cls-1,.cls-8{fill:#ffd107}.cls-2,.cls-7,.cls-9{fill:#00ed92}.cls-2,.cls-3{stroke:#fff}.cls-2,.cls-3,.cls-4,.cls-5,.cls-7,.cls-8{stroke-linecap:round;stroke-linejoin:round;stroke-width:2.41px}.cls-3,.cls-4{fill:none}.cls-4,.cls-5,.cls-7,.cls-8{stroke:#180041}.cls-10,.cls-5{fill:#180041}</style></defs><circle class="cls-1" cx="413.93" cy="82.54" r="24.4"/><path class="cls-2" d="M389.21 887.91c0-28.66-24.67-38-24.67-38 0-14-22.67-43.33-52-43.33s-38 10.67-38 10.67c-17-17-34.67-54-34.67-54h-22.66s-17.67 37-34.67 54c0 0-8.67-10.67-38-10.67s-52 29.33-52 43.33c0 0-24.67 9.34-24.67 38z"/><path class="cls-3" d="M144.62 835.24s1.75-5.5 10-5.5 9.25 6.25 9.25 6.25M138.37 864.49S121 842.08 92.54 849.91M222.12 788.74s-5.5 33-33 57.25M182.54 817.25s7.08 7 7.58 11.74M312.29 835.24s-1.75-5.5-10-5.5S293 836 293 836M318.54 864.49s17.42-22.41 45.83-14.58M234.79 788.74s5.5 33 33 57.25M274.37 817.25s-7.08 7-7.58 11.74"/><path class="cls-2" d="M482.54 887.91c0-28.66-24.67-38-24.67-38 0-14-22.66-43.33-52-43.33s-38 10.67-38 10.67c-17-17-34.66-54-34.66-54h-22.67s-17.67 37-34.67 54c0 0-8.66-10.67-38-10.67s-52 29.33-52 43.33c0 0-24.66 9.34-24.66 38z"/><path class="cls-3" d="M238 835.24s1.75-5.5 10-5.5 9.25 6.25 9.25 6.25M231.71 864.49s-17.42-22.41-45.84-14.58M315.46 788.74s-5.5 33-33 57.25M275.87 817.25s7.09 7 7.59 11.74M405.62 835.24s-1.75-5.5-10-5.5-9.25 6.25-9.25 6.25M411.87 864.49s17.42-22.41 45.84-14.58M328.12 788.74s5.5 33 33 57.25M367.71 817.25s-7.09 7-7.59 11.74"/><path class="cls-2" d="M184 864.49s-17.42-22.41-45.83-14.58M267.79 788.74s-5.5 33-33 57.25M228.21 817.25s7.08 7 7.58 11.74"/><path class="cls-2" d="M434.87 887.91c0-28.66-24.66-38-24.66-38 0-14-22.67-43.33-52-43.33s-38 10.67-38 10.67c-17-17-34.67-54-34.67-54h-22.67s-17.66 37-34.66 54c0 0-8.67-10.67-38-10.67s-52 29.33-52 43.33c0 0-24.67 9.34-24.67 38z"/><path class="cls-3" d="M190.29 835.24s1.75-5.5 10-5.5 9.25 6.25 9.25 6.25M184 864.49s-17.42-22.41-45.83-14.58M267.79 788.74s-5.5 33-33 57.25M228.21 817.25s7.08 7 7.58 11.74M358 835.24s-1.75-5.5-10-5.5-9.25 6.25-9.25 6.25M364.21 864.49s17.41-22.41 45.83-14.58M280.46 788.74s5.5 33 33 57.25M320 817.25s-7.08 7-7.58 11.74"/><path class="cls-4" d="M209.82 443.33V662.2"/><path class="cls-5" d="M228.27 732.19s1.9-1.12 2.76-8.88 6.81-60.74 6.81-60.74.17-13.18 2.76-13.18 5.17 10.51 5.25 12.49S248 744.6 248 744.6l-2.23 1.4v5.09l-1.28 1.28h-33.13l-1.28-1.28V746l-2.24-1.37s2.07-80.74 2.15-82.72 2.68-12.49 5.26-12.49 2.75 13.15 2.75 13.15 5.94 53 6.8 60.74 2.76 8.88 2.76 8.88z"/><path class="cls-3" d="M248.13 755s-2-26.4-6.85-26.4a8.72 8.72 0 0 0-7 3s-2 7.13-2.65 11.49a3.74 3.74 0 0 1-7.42 0c-.63-4.36-2.64-11.49-2.64-11.49a8.73 8.73 0 0 0-7-3c-4.82 0-7.24 25.58-7.24 25.58"/><path class="cls-4" d="M223.44 763.38l-.1-3.82a8.13 8.13 0 0 0-4.34-7.12h-.24a8.13 8.13 0 0 0-4.34 7.12l-.1 3.82zM214.27 759.52h8.9"/><path class="cls-4" d="M232.47 763.38l-.11-3.82a8.13 8.13 0 0 0-4.33-7.12h-.25a8.13 8.13 0 0 0-4.33 7.12l-.11 3.82zM223.29 759.52h8.91"/><path class="cls-4" d="M241.51 763.38l-.1-3.82a8.13 8.13 0 0 0-4.34-7.12h-.24a8.13 8.13 0 0 0-4.34 7.12l-.1 3.82zM232.34 759.52h8.9M213.36 416.39l-2.41 4.83v3.76l-2.95 2.95v14.88h11.4v-14.85l-2.62-2.78v-3.69l1.75-5.03-5.17-.07zM211.33 423.73l5.04.34M208.42 438.23l4.33 4.32M208.42 432.58l9.5 9.5M209.41 427.93l9.5 9.5M211.61 424.48l7.17 7.18M218.91 438.23l-4.33 4.32M218.91 432.58l-9.5 9.5M217.92 427.93l-9.5 9.5M215.72 424.48l-7.17 7.18M245.13 443.33v214.39"/><path class="cls-4" d="M245.13 425.32v-9.56s1-9.48-6.29-22.66-11.37-11.93-11.37-11.93-4.13-1.25-11.37 11.93-6.29 22.66-6.29 22.66v9.56"/><path class="cls-4" d="M241.59 416.39l2.42 4.83v3.76l2.95 2.95v14.88h-11.4v-14.85l2.61-2.78v-3.69l-1.74-5.03 5.16-.07zM243.63 423.73l-5.04.34M246.53 438.23l-4.33 4.32M246.53 432.58l-9.5 9.5M245.54 427.93l-9.5 9.5M243.35 424.48l-7.18 7.18M236.04 438.23l4.33 4.32M236.04 432.58l9.5 9.5M237.03 427.93l9.5 9.5M239.23 424.48l7.17 7.18M303.03 443.33V662.2M306.58 416.39l-2.42 4.83v3.76l-2.95 2.95v14.88h11.4v-14.85l-2.61-2.78v-3.69l1.74-5.03-5.16-.07zM304.54 423.73l5.04.34M301.63 438.23l4.33 4.32M301.63 432.58l9.5 9.5M302.62 427.93l9.5 9.5M304.82 424.48l7.17 7.18M312.12 438.23l-4.33 4.32M312.12 432.58l-9.5 9.5M311.13 427.93l-9.5 9.5M308.94 424.48l-7.18 7.18M338.35 443.33v214.39"/><path class="cls-4" d="M338.35 425.32v-9.56s.94-9.48-6.29-22.66-11.38-11.93-11.38-11.93-4.14-1.25-11.38 11.93-6.3 22.66-6.3 22.66v9.56"/><path class="cls-4" d="M334.8 416.39l2.42 4.83v3.76l2.95 2.95v14.88h-11.4v-14.85l2.61-2.78v-3.69l-1.74-5.03 5.16-.07zM336.84 423.73l-5.04.34M339.75 438.23l-4.33 4.32M339.75 432.58l-9.5 9.5M338.75 427.93l-9.49 9.5M336.56 424.48l-7.17 7.18M329.26 438.23l4.33 4.32M329.26 432.58l9.49 9.5M330.25 427.93l9.5 9.5M332.44 424.48l7.18 7.18"/><path class="cls-5" d="M321.17 732.19s1.9-1.12 2.76-8.88 6.8-60.74 6.8-60.74.18-13.18 2.76-13.18 5.17 10.51 5.26 12.49 2.15 82.72 2.15 82.72l-2.24 1.4v5.09l-1.28 1.28h-33.13l-1.25-1.31V746l-2.24-1.37s2.06-80.74 2.15-82.72 2.67-12.49 5.26-12.49 2.75 13.18 2.75 13.18 6 53 6.81 60.74 2.76 8.88 2.76 8.88z"/><path class="cls-3" d="M341 755s-2-26.4-6.85-26.4a8.75 8.75 0 0 0-7 3s-2 7.13-2.64 11.49a3.74 3.74 0 0 1-7.42 0c-.64-4.36-2.65-11.49-2.65-11.49a8.72 8.72 0 0 0-7-3c-4.83 0-7.24 25.58-7.24 25.58"/><path class="cls-4" d="M316.34 763.38l-.11-3.82a8.13 8.13 0 0 0-4.33-7.12h-.25a8.13 8.13 0 0 0-4.33 7.12l-.11 3.82zM307.16 759.52h8.91"/><path class="cls-4" d="M325.36 763.38l-.1-3.82a8.13 8.13 0 0 0-4.34-7.12h-.24a8.13 8.13 0 0 0-4.34 7.12l-.1 3.82zM316.19 759.52h8.9"/><path class="cls-4" d="M334.41 763.38l-.1-3.82a8.13 8.13 0 0 0-4.34-7.12h-.25a8.13 8.13 0 0 0-4.33 7.12l-.1 3.82zM325.23 759.52h8.91"/><path d="M291.59 658.7v-378c8.33-5.57 7.89-12 7.89-12l-.12-68s.52-15.23-9.53-31.54-15.57-14.47-15.57-14.47h-.17s-5.51-1.84-15.56 14.47-9.53 31.56-9.53 31.56l-.11 68s-.45 6.43 7.88 12v378" fill="#fff" stroke="#180041" stroke-linecap="round" stroke-linejoin="round" stroke-width="2.41"/><path class="cls-4" d="M256.57 280.5h35.27M259.74 416.39l-2.41 4.83v3.76l-2.95 2.95v14.88h11.4v-14.85l-2.62-2.78v-3.69l1.74-5.03-5.16-.07zM257.71 423.73l5.04.34M254.8 438.23l4.33 4.32M254.8 432.58l9.5 9.5M255.79 427.93l9.5 9.5M257.99 424.48l7.17 7.18M265.29 438.23l-4.33 4.32M265.29 432.58l-9.5 9.5M264.3 427.93l-9.5 9.5M262.1 424.48l-7.17 7.18M287.97 416.39l2.41 4.83v3.76l2.95 2.95v14.88h-11.4v-14.85l2.62-2.78v-3.69l-1.74-5.03 5.16-.07zM290 423.73l-5.04.34M292.91 438.23l-4.33 4.32M292.91 432.58l-9.5 9.5M291.92 427.93l-9.5 9.5M289.72 424.48l-7.17 7.18M282.42 438.23l4.33 4.32M282.42 432.58l9.5 9.5M283.41 427.93l9.5 9.5M285.61 424.48l7.17 7.18M273.37 280.16V343s-2.76 3.79-2.76 6.55 1 14.47 2.93 16.37 4-16.8 4-16.8-.34-4.57-4.18-6.12"/><path class="cls-5" d="M274.34 732.19s1.89-1.12 2.75-8.88l6.81-60.74s.17-13.18 2.76-13.18 5.17 10.51 5.25 12.49 2.16 82.72 2.16 82.72l-2.24 1.4v5.09l-1.28 1.28h-33.13l-1.28-1.28V746l-2.24-1.37s2.07-80.74 2.16-82.72 2.67-12.49 5.25-12.49 2.76 13.18 2.76 13.18 5.95 53 6.81 60.74 2.75 8.88 2.75 8.88z"/><path class="cls-3" d="M294.2 755s-2-26.4-6.85-26.4a8.73 8.73 0 0 0-7 3s-2 7.13-2.64 11.49a3.74 3.74 0 0 1-7.43 0c-.63-4.36-2.64-11.49-2.64-11.49a8.73 8.73 0 0 0-7-3c-4.82 0-7.24 25.58-7.24 25.58"/><path class="cls-4" d="M269.5 763.38l-.1-3.82a8.13 8.13 0 0 0-4.33-7.12h-.25a8.13 8.13 0 0 0-4.34 7.12l-.1 3.82zM260.33 759.52h8.9"/><path class="cls-4" d="M278.53 763.38l-.1-3.82a8.13 8.13 0 0 0-4.34-7.12h-.24a8.13 8.13 0 0 0-4.34 7.12l-.1 3.82zM269.35 759.52h8.91"/><path class="cls-4" d="M287.58 763.38l-.11-3.82a8.13 8.13 0 0 0-4.33-7.12h-.25a8.13 8.13 0 0 0-4.33 7.12l-.11 3.82zM278.4 759.52h8.91M218.5 416.29h115.9"/><ellipse class="cls-4" cx="264.57" cy="202.15" rx="2.99" ry="2.18"/><ellipse class="cls-4" cx="264.57" cy="242.93" rx="2.99" ry="2.18"/><path class="cls-4" d="M144.03 556.32l3.2-5.85 3.19 5.85 5.84 3.19-5.84 3.2-3.19 5.84-3.2-5.84-5.84-3.2 5.84-3.19z"/><path class="cls-7" d="M83.65 371.6l3.19-5.84 3.2 5.84 5.84 3.2-5.84 3.19-3.2 5.84-3.19-5.84-5.84-3.19 5.84-3.2z"/><path class="cls-8" d="M55.32 737.6l3.19-5.84 3.2 5.84 5.84 3.2-5.84 3.19-3.2 5.85-3.19-5.85-5.85-3.19 5.85-3.2z"/><path class="cls-4" d="M414.21 215.71l3.2-5.84 3.19 5.84 5.85 3.19-5.85 3.2-3.19 5.84-3.2-5.84-5.84-3.2 5.84-3.19z"/><path class="cls-8" d="M149.37 192.33l3.2-5.85 3.19 5.85 5.85 3.19-5.85 3.2-3.19 5.84-3.2-5.84-5.84-3.2 5.84-3.19z"/><circle class="cls-1" cx="166.04" cy="531.99" r="2.92"/><circle class="cls-9" cx="343.37" cy="329.33" r="2.92"/><circle class="cls-1" cx="171.71" cy="225.24" r="2.92"/><circle class="cls-4" cx="157.04" cy="291.74" r="2.92"/><circle class="cls-4" cx="124.54" cy="387.99" r="2.92"/><path class="cls-7" d="M438.04 580.99l3.2-5.84 3.19 5.84 5.84 3.2-5.84 3.19-3.19 5.85-3.2-5.85-5.84-3.19 5.84-3.2z"/><circle class="cls-1" cx="459.43" cy="751.38" r="2.92"/><circle class="cls-2" cx="501.43" cy="450.13" r="2.92"/><circle class="cls-4" cx="467.93" cy="617.38" r="2.92"/><circle class="cls-4" cx="417.59" cy="302.28" r="2.92"/><circle class="cls-4" cx="163.04" cy="601.91" r="2.92"/><circle class="cls-1" cx="439.72" cy="248.17" r="2.92"/><circle class="cls-1" cx="430.18" cy="424.43" r="2.92"/><path class="cls-10" d="M387.35 87.82a27.11 27.11 0 1 1 31.87 21.3 27.14 27.14 0 0 1-31.87-21.3zm50.51-10a24.39 24.39 0 1 0-19.17 28.68 24.42 24.42 0 0 0 19.17-28.72z"/><path class="cls-10" d="M423 58.63a1.36 1.36 0 0 1 .14-.92L429 47a1.37 1.37 0 0 1 .81-.66 1.33 1.33 0 0 1 1 .12l7.13 3.9a1.35 1.35 0 0 1 .65.81 1.28 1.28 0 0 1-.11 1L435.91 57a1.38 1.38 0 0 1-1.85.54l-5.94-3.26-2.6 4.72a1.36 1.36 0 0 1-1.84.54 1.39 1.39 0 0 1-.68-.91zm7.72-9.13l-1.3 2.38 4.75 2.61 1.31-2.38zM407.84 65.79a4.07 4.07 0 1 1 4.78 3.21 4.08 4.08 0 0 1-4.78-3.21zm5.32-1.06a1.36 1.36 0 1 0-1.07 1.59 1.36 1.36 0 0 0 1.07-1.59zM418.73 71.91a5.42 5.42 0 1 1 6.38 4.26 5.43 5.43 0 0 1-6.38-4.26zm8-1.58a2.71 2.71 0 1 0-2.13 3.18 2.72 2.72 0 0 0 2.11-3.18zM394 79.59a9.49 9.49 0 1 1 11.16 7.46A9.5 9.5 0 0 1 394 79.59zm16-3.17a6.77 6.77 0 1 0-5.32 8 6.79 6.79 0 0 0 5.32-8z"/><path class="cls-9" transform="rotate(-61.27 432.425 52.008)" d="M431.09 49.28h2.71v5.42h-2.71z"/></svg>
